X:10
T:Green Behter
Z: id:dc-reel-191
M:C
L:1/8
K:G Major
B|AFA AGA|BAG A2B|cA=F2 GBd|BAB Bcd|!
edB d2A|B2A d2e|fdA BcA|dcA AFG|!
A3 B3|dcd dcA|[1 GFE GFG|A3-G3:|!
de dB|AF D2 C2 DC|D3F22 D3:|!